resources/svg/ruby-o.svg

<svg xmlns="http://www.w3.org/2000/svg" viewBox="0 0 15 15" fill="none"><path d="M14.5 14.5V15H15V14.5H14.5ZM14.5 0.5H15V0H14.5V0.5ZM8.5 0.5V0H8.29289L8.14645 0.146447L8.5 0.5ZM0.5 8.5L0.146447 8.14645L0 8.29289V8.5H0.5ZM0.5 14.5H0V15H0.5V14.5ZM4.5 10.5L4.27639 10.9472L4.29499 10.9565L4.3143 10.9642L4.5 10.5ZM4.5 4.5V4C4.22386 4 4 4.22386 4 4.5H4.5ZM10.5 4.5L10.9642 4.3143L10.9565 4.29499L10.9472 4.27639L10.5 4.5ZM15 14.5V0.5H14V14.5H15ZM14.5 0H8.5V1H14.5V0ZM8.14645 0.146447L0.146447 8.14645L0.853553 8.85355L8.85355 0.853553L8.14645 0.146447ZM0 8.5V14.5H1V8.5H0ZM0.5 15H14.5V14H0.5V15ZM14.1464 0.146447L0.146447 14.1464L0.853553 14.8536L14.8536 0.853553L14.1464 0.146447ZM5 10.5V4.5H4V10.5H5ZM4.5 5H10.5V4H4.5V5ZM4.3143 10.9642L14.3143 14.9642L14.6857 14.0358L4.6857 10.0358L4.3143 10.9642ZM10.0358 4.6857L14.0358 14.6857L14.9642 14.3143L10.9642 4.3143L10.0358 4.6857ZM8.05279 0.723607L10.0528 4.72361L10.9472 4.27639L8.94721 0.276393L8.05279 0.723607ZM0.276393 8.94721L4.27639 10.9472L4.72361 10.0528L0.723607 8.05279L0.276393 8.94721Z" fill="black"/></svg>

<svg xmlns="http://www.w3.org/2000/svg" viewBox="0 0 15 15" fill="none"><path d="M14.5 14.5v.5h.5v-.5h-.5zm0-14h.5V0h-.5v.5zm-6 0V0h-.207l-.147.146L8.5.5zm-8 8l-.354-.354L0 8.293V8.5h.5zm0 6H0v.5h.5v-.5zm4-4l-.224.447.019.01.02.007.185-.464zm0-6V4a.5.5 0 00-.5.5h.5zm6 0l.464-.186-.008-.019-.009-.019-.447.224zm4.5 10V.5h-1v14h1zM14.5 0h-6v1h6V0zM8.146.146l-8 8 .708.708 8-8-.708-.708zM0 8.5v6h1v-6H0zM.5 15h14v-1H.5v1zM14.146.146l-14 14 .708.708 14-14-.708-.708zM5 10.5v-6H4v6h1zM4.5 5h6V4h-6v1zm-.186 5.964l10 4 .372-.928-10-4-.372.928zm5.722-6.278l4 10 .928-.372-4-10-.928.372zM8.053.724l2 4 .894-.448-2-4-.894.448zM.276 8.947l4 2 .448-.894-4-2-.448.894z" fill="currentColor"/></svg>
